X:1
T:Nacimiento, 77.75
T:Nacimiento, 77.75
T:William Fiske Sherwin, 1881
T:Public Domain Courtesy of the Cyber Hymnal™
C:William Fiske Sherwin, 1881
Z:Public Domain
Z:Courtesy of the Cyber Hymnal™
%%score 1 ( 2 3 )
L:1/8
Q:1/4=107
M:4/4
K:Ab
V:1 treble 
V:2 bass 
V:3 bass 
V:1
 [CE]2 [DE]2 [CA]2 [Ec]2 | [DB]3 [CA] [CA]4 | [CE]2 [EA]2 [Ec]2 [Ae]2 | [Gd]3 [Ac] [Ac]4 | %4
 [EA]2 [EA]2 [FB]2 [FB]2 | [_Gc]2 [Gc]2 [Fd]4 | [Ee]3 [Ec] [CA]2 [DF]2 | [CA]6 z2 |] %8
V:2
 A,2 [G,B,]2 A,2 A,2 | [E,G,]3 [A,,A,] [A,,A,]4 | A,2 [A,C]2 A,2 [A,C]2 | %3
 [E,B,]3 [A,,A,] [A,,A,]4 | [C,A,]2 [C,A,]2 [D,A,]2 [D,A,]2 | [E,A,]2 [E,A,]2 [D,A,]4 | %6
 [C,A,]3 [E,A,] [F,A,]2 (A,F,) | [A,,E,]6 z2 |] %8
V:3
 A,2 A,2 A,2 x2 | x8 | A,2 A,2 x4 | x8 | x8 | x8 | x6 D,2 | x8 |] %8

